images/icons/etsy.svg

<svg fill="none" height="24" viewBox="0 0 24 24" width="24" xmlns="http://www.w3.org/2000/svg" xmlns:xlink="http://www.w3.org/1999/xlink"><clipPath id="a"><path d="m0 0h24v24h-24z"/></clipPath><g clip-path="url(#a)"><path clip-rule="evenodd" d="m2 0c-1.104569 0-2 .89543-2 2v20c0 1.1046.89543 2 2 2h20c1.1046 0 2-.8954 2-2v-20c0-1.104569-.8954-2-2-2zm7.71997 11.523v-5.92142c0-.2464 0-.32327.40803-.32426h5.0354c.885 0 1.363.71652 1.6784 2.15646l.3233 1.12455h.8781c.0848-3.20315.1617-4.55833.1617-4.55833s-2.1555.23063-3.4338.23063h-6.40631l-3.36479-.06899v.87815l1.11667.23654c.80818.16164 1.04669.32328 1.04669 1.0398 0 0 .08476 2.16434.08476 5.75977 0 3.6043-.08476 5.7676-.08476 5.7676 0 .6397-.23851.8782-1.04669 1.0398l-1.11667.2464v.8703l3.44167-.0769h5.76763c1.2783 0 4.3198.0769 4.3198.0769.0769-.7934.4771-4.3198.5618-4.72h-.8082l-.8702 1.9249c-.6476 1.5168-1.6864 1.6016-2.7262 1.6016h-3.3648c-1.1166 0-1.60153-.4081-1.60153-1.3631v-4.9664s2.40283 0 3.20313.0848c.6397.0769.9629.2395 1.2015 1.0398l.2385 1.1245h.9629l-.0848-2.8799.1617-2.81084h-.9551l-.3232 1.28614c-.1617.8782-.3233.963-1.2015 1.1167-1.1166.0848-3.20313.0848-3.20313.0848z" fill="#fff" fill-rule="evenodd"/></g></svg>

<svg width="24" height="24" viewBox="0 0 24 24" fill="none" xmlns="http://www.w3.org/2000/svg">
<g clip-path="url(#clip0_1432_8607)">
<path fill-rule="evenodd" clip-rule="evenodd" d="M2 0C0.895431 0 0 0.89543 0 2V22C0 23.1046 0.89543 24 2 24H22C23.1046 24 24 23.1046 24 22V2C24 0.895431 23.1046 0 22 0H2ZM9.71997 11.523V5.60158C9.71997 5.35518 9.71997 5.27831 10.128 5.27732H15.1634C16.0484 5.27732 16.5264 5.99384 16.8418 7.43378L17.1651 8.55833H18.0432C18.128 5.35518 18.2049 4 18.2049 4C18.2049 4 16.0494 4.23063 14.7711 4.23063H8.36479L5 4.16164V5.03979L6.11667 5.27633C6.92485 5.43797 7.16336 5.59961 7.16336 6.31613C7.16336 6.31613 7.24812 8.48047 7.24812 12.0759C7.24812 15.6802 7.16336 17.8435 7.16336 17.8435C7.16336 18.4832 6.92485 18.7217 6.11667 18.8833L5 19.1297V20L8.44167 19.9231H14.2093C15.4876 19.9231 18.5291 20 18.5291 20C18.606 19.2066 19.0062 15.6802 19.0909 15.28H18.2827L17.4125 17.2049C16.7649 18.7217 15.7261 18.8065 14.6863 18.8065H11.3215C10.2049 18.8065 9.71997 18.3984 9.71997 17.4434V12.477C9.71997 12.477 12.1228 12.477 12.9231 12.5618C13.5628 12.6387 13.886 12.8013 14.1246 13.6016L14.3631 14.7261H15.326L15.2412 11.8462L15.4029 9.03536H14.4478L14.1246 10.3215C13.9629 11.1997 13.8013 11.2845 12.9231 11.4382C11.8065 11.523 9.71997 11.523 9.71997 11.523Z" fill="white"/>
</g>
<defs>
<clipPath id="clip0_1432_8607">
<rect width="24" height="24" fill="white"/>
</clipPath>
</defs>
</svg>
